src/img/catalog/down.svg

<svg width="15" height="15" viewBox="0 0 15 15" fill="none" xmlns="http://www.w3.org/2000/svg">
<g id="Frame" clip-path="url(#clip0_556_362)">
<path id="Vector" d="M6.61646 9.76352V9.52268C6.61646 6.62924 6.61646 3.73514 6.61646 0.841695C6.61646 0.336186 6.95457 -0.00986194 7.43295 0.000724623C7.84847 0.00998787 8.17665 0.323615 8.20246 0.737814C8.20643 0.80398 8.20444 0.870146 8.20444 0.936312C8.20444 3.80792 8.20444 6.67953 8.20444 9.55113C8.20444 9.60936 8.20444 9.66758 8.20444 9.76485C8.38971 9.59546 8.54652 9.45188 8.70267 9.3083C9.50262 8.57386 10.3012 7.83875 11.1025 7.1063C11.3434 6.88596 11.6246 6.82906 11.9303 6.9475C12.224 7.0613 12.3901 7.28494 12.4239 7.59526C12.4543 7.87184 12.3471 8.09945 12.1433 8.28736C11.5154 8.86631 10.8888 9.44725 10.2615 10.0275C9.65877 10.5853 9.05534 11.1418 8.4519 11.6995C7.78098 12.3195 7.04588 12.3248 6.37826 11.7081C5.15088 10.576 3.92549 9.4413 2.69811 8.30853C2.45925 8.0882 2.35867 7.82023 2.43146 7.50395C2.56908 6.90714 3.27044 6.70334 3.73625 7.12615C4.38931 7.71833 5.03641 8.3178 5.68616 8.91395C5.98523 9.18854 6.28497 9.46313 6.61447 9.76485L6.61646 9.76352Z" fill="white"/>
<path id="Vector_2" d="M1.58923 13.2265H13.2338C13.2338 13.1624 13.2338 13.1035 13.2338 13.0452C13.2338 12.1355 13.2292 11.2263 13.2358 10.3166C13.2397 9.73562 13.8048 9.36774 14.3421 9.59138C14.6478 9.71842 14.8152 9.96059 14.8178 10.2848C14.8271 11.3759 14.831 12.4676 14.8171 13.5587C14.8085 14.2343 14.2329 14.7874 13.5454 14.8192C13.4958 14.8211 13.4462 14.8211 13.3966 14.8211C9.40609 14.8211 5.41495 14.8211 1.42448 14.8211C0.748924 14.8211 0.226212 14.4586 0.0574888 13.8644C0.0204358 13.734 0.00323262 13.5931 0.00323262 13.4575C-0.001399 12.4266 -7.56819e-05 11.3957 0.00124764 10.3655C0.00124764 9.87457 0.326785 9.53117 0.788624 9.52786C1.25906 9.52522 1.58857 9.86862 1.58923 10.3682C1.59056 11.2555 1.58923 12.1427 1.58923 13.0307C1.58923 13.0909 1.58923 13.1505 1.58923 13.2265Z" fill="white"/>
</g>
<defs>
<clipPath id="clip0_556_362">
<rect width="14.8265" height="14.8219" fill="white"/>
</clipPath>
</defs>
</svg>

<svg width="15" height="15" fill="none" xmlns="http://www.w3.org/2000/svg"><g id="Frame" clip-path="url(#clip0_556_362)" fill="#fff"><path id="Vector" d="M6.616 9.764V.842c0-.506.339-.852.817-.841a.78.78 0 01.77.737c.003.066.001.132.001.198v8.829l.499-.457c.8-.734 1.598-1.47 2.4-2.202a.751.751 0 01.827-.159.74.74 0 01.494.648c.03.277-.077.504-.28.692l-1.883 1.74c-.602.558-1.206 1.115-1.81 1.673-.67.62-1.405.625-2.073.008-1.227-1.132-2.453-2.267-3.68-3.4-.239-.22-.34-.488-.267-.804.138-.597.84-.8 1.305-.378.653.592 1.3 1.192 1.95 1.788l.928.85h.002z"/><path id="Vector_2" d="M1.59 13.226h11.644v-.18c0-.91-.005-1.82.002-2.73a.785.785 0 011.106-.725c.306.127.473.37.476.694.01 1.09.013 2.183 0 3.274-.01.675-.585 1.228-1.273 1.26-.05.002-.099.002-.148.002H1.424c-.675 0-1.198-.362-1.367-.957a1.508 1.508 0 01-.054-.407 796.063 796.063 0 01-.002-3.091c0-.491.326-.835.788-.838.47-.003.8.34.8.84.002.887 0 1.775 0 2.663v.195z"/></g><defs><clipPath id="clip0_556_362"><path fill="#fff" d="M0 0h14.826v14.822H0z"/></clipPath></defs></svg>
